static/img/kroki/8137ba180953add40edb681a04c3cb97.svg

<?xml version="1.0" encoding="us-ascii" standalone="no"?><svg xmlns="http://www.w3.org/2000/svg" xmlns:xlink="http://www.w3.org/1999/xlink" contentStyleType="text/css" height="352px" preserveAspectRatio="none" style="width:478px;height:352px;" version="1.1" viewBox="0 0 478 352" width="478px" zoomAndPan="magnify"><defs/><g><!--class aws_ec2_image--><g id="elem_aws_ec2_image"><rect codeLine="23" fill="#3D176E" height="39.7891" id="aws_ec2_image" rx="2.5" ry="2.5" style="stroke:#000D19;stroke-width:0.5;" width="174" x="7" y="106.79"/><ellipse cx="22" cy="126.6845" fill="#ADD1B2" rx="11" ry="11" style="stroke:#181818;stroke-width:1.0;"/><path d="M24.9688,132.3252 Q24.3906,132.622 23.75,132.7627 Q23.1094,132.9189 22.4063,132.9189 Q19.9063,132.9189 18.5781,131.2783 Q17.2656,129.622 17.2656,126.497 Q17.2656,123.372 18.5781,121.7158 Q19.9063,120.0595 22.4063,120.0595 Q23.1094,120.0595 23.75,120.2158 Q24.4063,120.372 24.9688,120.6689 L24.9688,123.3877 Q24.3438,122.8095 23.75,122.5439 Q23.1563,122.2627 22.5313,122.2627 Q21.1875,122.2627 20.5,123.3408 Q19.8125,124.4033 19.8125,126.497 Q19.8125,128.5908 20.5,129.6689 Q21.1875,130.7314 22.5313,130.7314 Q23.1563,130.7314 23.75,130.4658 Q24.3438,130.1845 24.9688,129.6064 L24.9688,132.3252 Z " fill="#000000"/><text fill="#D9B8FF" font-family="Helvetica" font-size="17" lengthAdjust="spacing" textLength="132" x="41" y="132.5698">aws_ec2_image</text></g><!--class aws_ec2_snapshot--><g id="elem_aws_ec2_snapshot"><rect codeLine="26" fill="#3D176E" height="39.7891" id="aws_ec2_snapshot" rx="2.5" ry="2.5" style="stroke:#000D19;stroke-width:0.5;" width="197" x="132.5" y="206.58"/><ellipse cx="147.5" cy="226.4745" fill="#ADD1B2" rx="11" ry="11" style="stroke:#181818;stroke-width:1.0;"/><path d="M150.4688,232.1152 Q149.8906,232.412 149.25,232.5527 Q148.6094,232.7089 147.9063,232.7089 Q145.4063,232.7089 144.0781,231.0683 Q142.7656,229.412 142.7656,226.287 Q142.7656,223.162 144.0781,221.5058 Q145.4063,219.8495 147.9063,219.8495 Q148.6094,219.8495 149.25,220.0058 Q149.9063,220.162 150.4688,220.4589 L150.4688,223.1777 Q149.8438,222.5995 149.25,222.3339 Q148.6563,222.0527 148.0313,222.0527 Q146.6875,222.0527 146,223.1308 Q145.3125,224.1933 145.3125,226.287 Q145.3125,228.3808 146,229.4589 Q146.6875,230.5214 148.0313,230.5214 Q148.6563,230.5214 149.25,230.2558 Q149.8438,229.9745 150.4688,229.3964 L150.4688,232.1152 Z " fill="#000000"/><text fill="#D9B8FF" font-family="Helvetica" font-size="17" lengthAdjust="spacing" textLength="155" x="166.5" y="232.3598">aws_ec2_snapshot</text></g><!--class aws_ec2_volume--><g id="elem_aws_ec2_volume"><rect codeLine="29" fill="#3D176E" height="39.7891" id="aws_ec2_volume" rx="2.5" ry="2.5" style="stroke:#000D19;stroke-width:0.5;" width="185" x="286.5" y="106.79"/><ellipse cx="301.5" cy="126.6845" fill="#ADD1B2" rx="11" ry="11" style="stroke:#181818;stroke-width:1.0;"/><path d="M304.4688,132.3252 Q303.8906,132.622 303.25,132.7627 Q302.6094,132.9189 301.9063,132.9189 Q299.4063,132.9189 298.0781,131.2783 Q296.7656,129.622 296.7656,126.497 Q296.7656,123.372 298.0781,121.7158 Q299.4063,120.0595 301.9063,120.0595 Q302.6094,120.0595 303.25,120.2158 Q303.9063,120.372 304.4688,120.6689 L304.4688,123.3877 Q303.8438,122.8095 303.25,122.5439 Q302.6563,122.2627 302.0313,122.2627 Q300.6875,122.2627 300,123.3408 Q299.3125,124.4033 299.3125,126.497 Q299.3125,128.5908 300,129.6689 Q300.6875,130.7314 302.0313,130.7314 Q302.6563,130.7314 303.25,130.4658 Q303.8438,130.1845 304.4688,129.6064 L304.4688,132.3252 Z " fill="#000000"/><text fill="#D9B8FF" font-family="Helvetica" font-size="17" lengthAdjust="spacing" textLength="143" x="320.5" y="132.5698">aws_ec2_volume</text></g><!--class aws_kms_key--><g id="elem_aws_kms_key"><rect codeLine="32" fill="#3D176E" height="39.7891" id="aws_kms_key" rx="2.5" ry="2.5" style="stroke:#000D19;stroke-width:0.5;" width="158" x="227" y="306.37"/><ellipse cx="242" cy="326.2645" fill="#ADD1B2" rx="11" ry="11" style="stroke:#181818;stroke-width:1.0;"/><path d="M244.9688,331.9052 Q244.3906,332.202 243.75,332.3427 Q243.1094,332.4989 242.4063,332.4989 Q239.9063,332.4989 238.5781,330.8583 Q237.2656,329.202 237.2656,326.077 Q237.2656,322.952 238.5781,321.2958 Q239.9063,319.6395 242.4063,319.6395 Q243.1094,319.6395 243.75,319.7958 Q244.4063,319.952 244.9688,320.2489 L244.9688,322.9677 Q244.3438,322.3895 243.75,322.1239 Q243.1563,321.8427 242.5313,321.8427 Q241.1875,321.8427 240.5,322.9208 Q239.8125,323.9833 239.8125,326.077 Q239.8125,328.1708 240.5,329.2489 Q241.1875,330.3114 242.5313,330.3114 Q243.1563,330.3114 243.75,330.0458 Q244.3438,329.7645 244.9688,329.1864 L244.9688,331.9052 Z " fill="#000000"/><text fill="#D9B8FF" font-family="Helvetica" font-size="17" lengthAdjust="spacing" textLength="116" x="261" y="332.1498">aws_kms_key</text></g><!--class aws_region--><g id="elem_aws_region"><rect codeLine="35" fill="#3D176E" height="39.7891" id="aws_region" rx="2.5" ry="2.5" style="stroke:#000D19;stroke-width:0.5;" width="137" x="237.5" y="7"/><ellipse cx="252.5" cy="26.8945" fill="#ADD1B2" rx="11" ry="11" style="stroke:#181818;stroke-width:1.0;"/><path d="M255.4688,32.5352 Q254.8906,32.832 254.25,32.9727 Q253.6094,33.1289 252.9063,33.1289 Q250.4063,33.1289 249.0781,31.4883 Q247.7656,29.832 247.7656,26.707 Q247.7656,23.582 249.0781,21.9258 Q250.4063,20.2695 252.9063,20.2695 Q253.6094,20.2695 254.25,20.4258 Q254.9063,20.582 255.4688,20.8789 L255.4688,23.5977 Q254.8438,23.0195 254.25,22.7539 Q253.6563,22.4727 253.0313,22.4727 Q251.6875,22.4727 251,23.5508 Q250.3125,24.6133 250.3125,26.707 Q250.3125,28.8008 251,29.8789 Q251.6875,30.9414 253.0313,30.9414 Q253.6563,30.9414 254.25,30.6758 Q254.8438,30.3945 255.4688,29.8164 L255.4688,32.5352 Z " fill="#000000"/><text fill="#D9B8FF" font-family="Helvetica" font-size="17" lengthAdjust="spacing" textLength="95" x="271.5" y="32.7798">aws_region</text></g><!--link aws_ec2_image to aws_ec2_snapshot--><g id="link_aws_ec2_image_aws_ec2_snapshot"><path codeLine="38" d="M121.07,147.01 C145.08,164.15 175.1073,185.573 199.1073,202.713 " fill="none" id="aws_ec2_image-to-aws_ec2_snapshot" style="stroke:#1A83AF;stroke-width:2.0;"/><polygon fill="#1A83AF" points="203.99,206.2,198.9907,197.7143,199.9211,203.2941,194.3413,204.2246,203.99,206.2" style="stroke:#1A83AF;stroke-width:2.0;"/></g><!--link aws_ec2_snapshot to aws_kms_key--><g id="link_aws_ec2_snapshot_aws_kms_key"><path codeLine="39" d="M245.82,246.8 C258.97,263.94 274.4195,284.0883 287.5595,301.2283 " fill="none" id="aws_ec2_snapshot-to-aws_kms_key" style="stroke:#1A83AF;stroke-width:2.0;"/><polygon fill="#1A83AF" points="291.21,305.99,288.9088,296.4138,288.1679,302.0219,282.5598,301.2811,291.21,305.99" style="stroke:#1A83AF;stroke-width:2.0;"/></g><!--link aws_ec2_volume to aws_ec2_snapshot--><g id="link_aws_ec2_volume_aws_ec2_snapshot"><path codeLine="40" d="M349.76,147.01 C323.81,164.15 291.1153,185.7514 265.1853,202.8914 " fill="none" id="aws_ec2_volume-to-aws_ec2_snapshot" style="stroke:#1A83AF;stroke-width:2.0;"/><polygon fill="#1A83AF" points="260.18,206.2,269.8937,204.574,264.3511,203.4429,265.4823,197.9003,260.18,206.2" style="stroke:#1A83AF;stroke-width:2.0;"/></g><!--link aws_ec2_volume to aws_kms_key--><g id="link_aws_ec2_volume_aws_kms_key"><path codeLine="41" d="M375.14,147 C370.07,170.83 360.24,212.37 347,246.37 C338.77,267.52 329.4561,285.1859 320.4761,300.8359 " fill="none" id="aws_ec2_volume-to-aws_kms_key" style="stroke:#1A83AF;stroke-width:2.0;"/><polygon fill="#1A83AF" points="317.49,306.04,325.4386,300.2246,319.9784,301.7032,318.4998,296.243,317.49,306.04" style="stroke:#1A83AF;stroke-width:2.0;"/></g><!--link aws_region to aws_ec2_snapshot--><g id="link_aws_region_aws_ec2_snapshot"><path codeLine="42" d="M296.17,47.05 C288.27,62.84 277.18,85.95 269,106.79 C255.48,141.23 244.7048,176.8498 237.9548,200.5298 " fill="none" id="aws_region-to-aws_ec2_snapshot" style="stroke:#1A83AF;stroke-width:2.0;"/><polygon fill="#1A83AF" points="236.31,206.3,242.6239,198.7413,237.6807,201.4915,234.9304,196.5482,236.31,206.3" style="stroke:#1A83AF;stroke-width:2.0;"/></g><!--link aws_region to aws_ec2_volume--><g id="link_aws_region_aws_ec2_volume"><path codeLine="43" d="M320.42,47.22 C333.22,64.36 348.2303,84.4723 361.0203,101.6023 " fill="none" id="aws_region-to-aws_ec2_volume" style="stroke:#1A83AF;stroke-width:2.0;"/><polygon fill="#1A83AF" points="364.61,106.41,362.4307,96.8053,361.6186,102.4036,356.0203,101.5915,364.61,106.41" style="stroke:#1A83AF;stroke-width:2.0;"/></g><!--SRC=[ZP1FQm8n4CNl-oa2dWLNQTLBOHMalKYflPKYusQo6tQJB9EesDBlNktQ4XF_z93Bl5_UUpEbvCXGDMx75AeLaari9NK318fbH6OxDRKXrX42n60OYZEZtKrW3WhP8zORT3A7a7WjPLvfj9RrFMa2ULMGMMlUsZi2RVSIQkTHqngipPmZkLexzChmyMeaH4Y6ffq1JuVt6666ED8HwVLwF1s7oCsegtl_4GlvWIprZpOt3gEQKSGFTRNbWV1AHel-wXSxFWFdKXVipfkzj9r88vtC5oLmiptG0chhnrY7XCRj6fn6M-5unCNmBFnq2Kxom-aOREqIy_vIAYYGVIR9Lo1O3OqjZJkdRKozLj6lIkqVxi8nOI6DRgUdgTstJfgD1jdilViGvIPHaGW_1YP1hV_PNe9zqsFrsuRNm3Oe-GO0]--></g></svg>

<svg xmlns="http://www.w3.org/2000/svg" width="478" height="352" viewBox="0 0 478 352"><rect width="174" height="39.789" x="7" y="106.79" fill="#3D176E" rx="2.5" ry="2.5" style="stroke:#000d19;stroke-width:.5"/><circle cx="22" cy="126.684" r="11" fill="#ADD1B2" style="stroke:#181818;stroke-width:1"/><path d="M24.969 132.325q-.578.297-1.219.438-.64.156-1.344.156-2.5 0-3.828-1.64-1.312-1.657-1.312-4.782t1.312-4.781q1.328-1.656 3.828-1.656.703 0 1.344.156.656.156 1.219.453v2.719q-.625-.579-1.219-.844-.594-.281-1.219-.281-1.343 0-2.031 1.078-.687 1.062-.687 3.156t.687 3.172q.688 1.062 2.031 1.062.625 0 1.219-.265.594-.281 1.219-.86z"/><text x="41" y="132.57" fill="#D9B8FF" font-family="Helvetica" font-size="17" textLength="132">aws_ec2_image</text><rect width="197" height="39.789" x="132.5" y="206.58" fill="#3D176E" rx="2.5" ry="2.5" style="stroke:#000d19;stroke-width:.5"/><circle cx="147.5" cy="226.475" r="11" fill="#ADD1B2" style="stroke:#181818;stroke-width:1"/><path d="M150.469 232.115q-.578.297-1.219.438-.64.156-1.344.156-2.5 0-3.828-1.64-1.312-1.657-1.312-4.782t1.312-4.781q1.328-1.656 3.828-1.656.703 0 1.344.156.656.156 1.219.453v2.719q-.625-.578-1.219-.844-.594-.281-1.219-.281-1.344 0-2.031 1.078-.687 1.062-.687 3.156t.687 3.172q.688 1.062 2.031 1.062.625 0 1.219-.265.594-.281 1.219-.86z"/><text x="166.5" y="232.36" fill="#D9B8FF" font-family="Helvetica" font-size="17" textLength="155">aws_ec2_snapshot</text><rect width="185" height="39.789" x="286.5" y="106.79" fill="#3D176E" rx="2.5" ry="2.5" style="stroke:#000d19;stroke-width:.5"/><circle cx="301.5" cy="126.684" r="11" fill="#ADD1B2" style="stroke:#181818;stroke-width:1"/><path d="M304.469 132.325q-.578.297-1.219.438-.64.156-1.344.156-2.5 0-3.828-1.64-1.312-1.657-1.312-4.782t1.312-4.781q1.328-1.656 3.828-1.656.703 0 1.344.156.656.156 1.219.453v2.719q-.625-.579-1.219-.844-.594-.281-1.219-.281-1.344 0-2.031 1.078-.687 1.062-.687 3.156t.687 3.172q.688 1.062 2.031 1.062.625 0 1.219-.265.594-.281 1.219-.86z"/><text x="320.5" y="132.57" fill="#D9B8FF" font-family="Helvetica" font-size="17" textLength="143">aws_ec2_volume</text><rect width="158" height="39.789" x="227" y="306.37" fill="#3D176E" rx="2.5" ry="2.5" style="stroke:#000d19;stroke-width:.5"/><circle cx="242" cy="326.264" r="11" fill="#ADD1B2" style="stroke:#181818;stroke-width:1"/><path d="M244.969 331.905q-.578.297-1.219.438-.64.156-1.344.156-2.5 0-3.828-1.64-1.312-1.657-1.312-4.782t1.312-4.781q1.328-1.656 3.828-1.656.703 0 1.344.156.656.156 1.219.453v2.719q-.625-.579-1.219-.844-.594-.281-1.219-.281-1.344 0-2.031 1.078-.687 1.062-.687 3.156t.687 3.172q.688 1.062 2.031 1.062.625 0 1.219-.265.594-.281 1.219-.86z"/><text x="261" y="332.15" fill="#D9B8FF" font-family="Helvetica" font-size="17" textLength="116">aws_kms_key</text><rect width="137" height="39.789" x="237.5" y="7" fill="#3D176E" rx="2.5" ry="2.5" style="stroke:#000d19;stroke-width:.5"/><circle cx="252.5" cy="26.895" r="11" fill="#ADD1B2" style="stroke:#181818;stroke-width:1"/><path d="M255.469 32.535q-.578.297-1.219.438-.64.156-1.344.156-2.5 0-3.828-1.64-1.312-1.657-1.312-4.782t1.312-4.781q1.328-1.656 3.828-1.656.703 0 1.344.156.656.156 1.219.453v2.719q-.625-.578-1.219-.844-.594-.281-1.219-.281-1.344 0-2.031 1.078-.687 1.062-.687 3.156t.687 3.172q.688 1.062 2.031 1.062.625 0 1.219-.265.594-.281 1.219-.86z"/><text x="271.5" y="32.78" fill="#D9B8FF" font-family="Helvetica" font-size="17" textLength="95">aws_region</text><path fill="none" d="M121.07 147.01c24.01 17.14 54.037 38.563 78.037 55.703" style="stroke:#1a83af;stroke-width:2"/><path fill="#1A83AF" d="m203.99 206.2-5-8.486.931 5.58-5.58.93z" style="stroke:#1a83af;stroke-width:2"/><path fill="none" d="M245.82 246.8c13.15 17.14 28.6 37.288 41.74 54.428" style="stroke:#1a83af;stroke-width:2"/><path fill="#1A83AF" d="m291.21 305.99-2.301-9.576-.741 5.608-5.608-.74z" style="stroke:#1a83af;stroke-width:2"/><path fill="none" d="M349.76 147.01c-25.95 17.14-58.645 38.741-84.575 55.881" style="stroke:#1a83af;stroke-width:2"/><path fill="#1A83AF" d="m260.18 206.2 9.714-1.626-5.543-1.131 1.131-5.543z" style="stroke:#1a83af;stroke-width:2"/><path fill="none" d="M375.14 147c-5.07 23.83-14.9 65.37-28.14 99.37-8.23 21.15-17.544 38.816-26.524 54.466" style="stroke:#1a83af;stroke-width:2"/><path fill="#1A83AF" d="m317.49 306.04 7.949-5.815-5.46 1.478-1.48-5.46z" style="stroke:#1a83af;stroke-width:2"/><path fill="none" d="M296.17 47.05c-7.9 15.79-18.99 38.9-27.17 59.74-13.52 34.44-24.295 70.06-31.045 93.74" style="stroke:#1a83af;stroke-width:2"/><path fill="#1A83AF" d="m236.31 206.3 6.314-7.559-4.943 2.75-2.75-4.943z" style="stroke:#1a83af;stroke-width:2"/><path fill="none" d="M320.42 47.22c12.8 17.14 27.81 37.252 40.6 54.382" style="stroke:#1a83af;stroke-width:2"/><path fill="#1A83AF" d="m364.61 106.41-2.18-9.605-.811 5.599-5.599-.812z" style="stroke:#1a83af;stroke-width:2"/></svg>
